packages/icons/src/emoji/svg/clipboard.svg

<svg width="120" height="120" viewBox="0 0 120 120" fill="none" xmlns="http://www.w3.org/2000/svg">
<g clip-path="url(#clip0_212_428)">
<path d="M91.2936 80.4188C101.475 67.3969 116.634 44.1938 116.634 44.1938C116.634 44.1938 119.756 40.1907 119.25 37.7719C118.612 34.7438 114.937 33.075 112.772 31.2938C111.628 30.3469 110.475 29.55 109.265 28.7157C106.603 26.8782 103.959 25.05 101.325 23.2407C95.728 19.3969 90.1592 15.6282 84.5717 12C79.0592 8.40941 73.4061 5.25004 67.7905 2.01566C64.9686 0.384411 62.6061 -0.534339 59.7842 1.47191C56.3624 3.90941 53.4936 7.35941 50.5124 10.5C47.2405 13.9407 30.5811 31.7438 27.0092 35.3625C22.3123 40.125 17.5592 44.9532 12.7217 49.8563C10.5936 52.0125 8.4186 54.15 6.30922 56.3813C3.70297 59.1282 -0.825151 63.1875 1.19985 66.9938C3.30922 70.9594 7.43422 74.0438 10.6311 77.1469C19.1999 85.4532 27.9092 93.9844 36.8811 102.581C40.6311 106.172 44.4374 109.791 48.1874 113.531C50.8217 116.166 55.228 120.197 59.1655 119.616C61.4717 119.269 65.128 115.181 65.128 115.181C65.128 115.181 81.1124 93.45 91.2936 80.4188Z" fill="#855C52"/>
<path d="M83.6718 73.003C89.6155 65.0061 95.4655 56.9343 100.978 48.6374C102.187 46.8186 105.525 43.0218 105.45 40.678C105.403 39.3936 103.425 38.4936 102.562 37.753C100.978 36.3843 98.9343 35.278 97.1811 34.0686C95.1843 32.6905 93.1968 31.3124 91.2093 29.953C86.2686 26.5593 81.2436 23.2499 76.2655 19.903C73.6968 18.178 71.1468 16.4436 68.6061 14.6718C67.0593 13.5936 64.678 11.128 62.7186 10.9968C62.278 10.9686 62.3624 10.8936 61.8843 11.1749C60.4124 12.028 59.053 13.6686 57.9093 14.9249C56.2593 16.7343 54.6561 18.5811 52.9686 20.3624C50.503 22.9499 37.9593 36.3468 35.2686 39.0749C31.7436 42.6468 28.0405 46.0499 24.4874 49.603C21.2061 52.8843 18.4218 56.5124 15.3186 59.9343C14.0155 61.3593 14.3999 62.0155 15.3936 63.3936C17.9061 66.8905 22.1905 69.4968 25.5093 72.2624C31.9218 77.6155 37.9405 83.2874 43.8468 89.1749C48.2436 93.553 53.2499 97.2468 57.8718 101.362C58.5749 101.981 59.1936 102.722 60.253 102.394C60.628 102.281 60.9561 101.869 61.2186 101.625C65.5593 97.5843 69.0561 92.3905 72.6093 87.6843C76.303 82.7999 80.0061 77.9155 83.6718 73.003Z" fill="white"/>
<path d="M105.656 14.625C105.431 13.8 105.047 12.9844 104.522 12.2063C103.143 10.1344 101.212 8.5688 99.2716 7.0688C96.4309 4.87505 92.6247 3.02817 89.0059 2.88755C87.1684 2.82192 85.8091 3.92817 84.5997 5.16567C84.0559 5.7188 83.5872 6.2438 82.7622 6.21567C81.9841 6.18755 81.2716 5.73755 80.5216 5.61567C78.2434 5.24067 76.3122 6.75942 74.8778 8.34379C73.3122 10.0594 71.7747 11.8969 70.4247 13.7532C69.4591 15.075 68.5778 16.5094 68.0528 18.0657C67.2278 20.5313 67.5278 22.8282 69.5528 24.525C71.6622 26.2969 73.5184 28.4063 75.6466 30.1407C78.5622 32.5125 81.8997 34.2657 85.0497 36.2907C89.5309 39.1688 93.1684 40.2844 97.4997 36.4032C97.6591 36.2625 97.8091 36.1125 97.9684 35.9625C99.7778 34.2188 101.381 32.2125 102.562 29.9907C102.89 29.3625 103.059 28.6782 103.293 28.0219C103.462 27.5532 103.79 27.1219 103.931 26.6719C104.306 25.5094 103.978 23.85 103.968 22.6407C103.95 21.2625 104.85 20.3063 105.347 19.0875C105.975 17.55 106.05 16.05 105.656 14.625Z" fill="#78A3AD"/>
<path d="M107.456 14.025C107.203 13.1157 106.791 12.2344 106.219 11.3813C104.71 9.11254 102.591 7.39692 100.453 5.75629C97.3408 3.34692 93.1689 1.33129 89.222 1.18129C87.2064 1.10629 85.7158 2.31567 84.3846 3.67504C83.8033 4.27504 83.2783 4.85629 82.3689 4.82817C81.5252 4.79067 80.747 4.30317 79.9127 4.17192C77.4189 3.75942 75.3096 5.42817 73.7346 7.15317C72.0283 9.02817 70.3408 11.0438 68.8595 13.0782C67.8002 14.5313 66.8346 16.0969 66.2627 17.8032C65.3533 20.5032 65.6814 23.0157 67.9033 24.8719C70.2096 26.8125 72.2439 29.1188 74.5783 31.0219C77.7752 33.6188 81.4314 35.5407 84.8814 37.7532C89.7939 40.9032 93.7783 42.1313 98.5127 37.875C98.6908 37.7157 98.8689 37.5563 99.0377 37.3876C101.016 35.4844 102.778 33.2813 104.072 30.8438C104.438 30.1594 104.616 29.4094 104.869 28.6875C105.047 28.1813 105.403 27.7032 105.572 27.2063C105.985 25.9313 105.619 24.1219 105.61 22.7907C105.6 21.2813 106.575 20.2313 107.11 18.9C107.813 17.2313 107.888 15.5907 107.456 14.025ZM91.2471 5.85004C93.3189 6.27192 95.2596 7.28442 97.0314 8.41879C98.9627 9.65629 103.247 12.7875 100.406 15.3563C99.1877 16.4625 98.672 15.0563 97.7908 14.3813C96.0283 13.0219 94.2189 11.6907 92.4189 10.3782C91.5564 9.75004 87.7221 8.25004 87.9939 6.92817C88.2283 5.74692 89.5408 5.50317 91.2471 5.85004ZM94.3689 33.6938C91.8752 35.3063 89.5314 34.2844 87.1033 32.7844C84.7877 31.3594 82.3314 30.1594 80.1377 28.5563C77.4846 26.6344 74.8408 24.4219 72.3189 22.3313C69.6846 20.1469 72.2158 15.6375 73.9408 13.7438C74.9814 12.6 76.5658 10.9407 77.9533 10.2188C79.9783 9.16879 81.9564 10.4907 83.8033 11.4469C88.3221 13.7625 92.6721 16.4813 96.5252 19.8094C97.8377 20.9438 100.388 23.0063 100.078 25.0125C99.9658 25.7344 99.497 26.7282 99.2252 27.3938C98.2783 29.6907 96.6564 32.0907 94.6127 33.5438C94.5189 33.6 94.4439 33.6469 94.3689 33.6938Z" fill="#2F2F2F"/>
<path d="M76.2278 13.1907C76.2278 13.1907 78.4309 10.0876 80.2965 10.997C81.7965 11.7189 89.7278 16.4626 91.2184 17.5782C92.709 18.6939 91.284 18.6189 89.6059 18.1689C87.9278 17.7189 82.6403 14.9626 80.7747 15.3376C78.909 15.7126 74.3059 18.5532 73.1809 18.5532C72.0653 18.5532 74.9997 14.8032 76.2278 13.1907Z" fill="white"/>
</g>
<defs>
<clipPath id="clip0_212_428">
<rect width="120" height="120" fill="white"/>
</clipPath>
</defs>
</svg>

<svg xmlns="http://www.w3.org/2000/svg" fill="none" aria-hidden="true" data-slot="icon" viewBox="0 0 120 120"><g clip-path="url(#a)"><path fill="#855C52" d="M91.294 80.419c10.181-13.022 25.34-36.225 25.34-36.225s3.122-4.003 2.616-6.422c-.638-3.028-4.313-4.697-6.478-6.478-1.144-.947-2.297-1.744-3.507-2.578-2.662-1.838-5.306-3.666-7.94-5.475C95.728 19.397 90.159 15.628 84.572 12 79.059 8.41 73.406 5.25 67.79 2.016c-2.821-1.632-5.184-2.55-8.006-.544-3.422 2.437-6.29 5.887-9.272 9.028-3.272 3.44-19.93 21.244-23.503 24.862-4.697 4.763-9.45 9.591-14.287 14.494-2.128 2.157-4.303 4.294-6.413 6.525-2.606 2.747-7.134 6.807-5.11 10.613 2.11 3.965 6.235 7.05 9.432 10.153 8.569 8.306 17.278 16.837 26.25 25.434 3.75 3.591 7.556 7.21 11.306 10.95 2.635 2.635 7.041 6.666 10.979 6.085 2.306-.347 5.962-4.435 5.962-4.435S81.112 93.45 91.294 80.419"/><path fill="#fff" d="M83.672 73.003c5.944-7.997 11.794-16.069 17.306-24.366 1.209-1.818 4.547-5.615 4.472-7.959-.047-1.284-2.025-2.184-2.888-2.925-1.584-1.369-3.628-2.475-5.38-3.684-1.998-1.379-3.985-2.757-5.973-4.116-4.94-3.394-9.965-6.703-14.943-10.05a527 527 0 0 1-7.66-5.231c-1.547-1.078-3.928-3.544-5.887-3.675-.441-.028-.357-.103-.835.178-1.472.853-2.831 2.494-3.975 3.75-1.65 1.81-3.253 3.656-4.94 5.437-2.466 2.588-15.01 15.985-17.7 18.713-3.525 3.572-7.228 6.975-10.782 10.528-3.28 3.281-6.065 6.91-9.168 10.331-1.304 1.425-.92 2.082.075 3.46 2.512 3.497 6.797 6.103 10.115 8.868 6.413 5.353 12.432 11.025 18.338 16.913 4.397 4.378 9.403 8.072 14.025 12.187.703.619 1.322 1.36 2.381 1.032.375-.113.703-.525.966-.769 4.34-4.04 7.837-9.234 11.39-13.94 3.694-4.885 7.397-9.77 11.063-14.682"/><path fill="#78A3AD" d="M105.656 14.625a8.2 8.2 0 0 0-1.134-2.419c-1.379-2.072-3.31-3.637-5.25-5.137-2.841-2.194-6.647-4.04-10.266-4.181-1.838-.066-3.197 1.04-4.406 2.278-.544.553-1.013 1.078-1.838 1.05-.778-.028-1.49-.478-2.24-.6-2.279-.375-4.21 1.143-5.644 2.728-1.566 1.715-3.103 3.553-4.453 5.41-.966 1.321-1.847 2.755-2.372 4.312-.825 2.465-.525 4.762 1.5 6.459 2.11 1.772 3.965 3.881 6.094 5.616 2.915 2.372 6.253 4.125 9.403 6.15 4.48 2.878 8.118 3.993 12.45.112.16-.14.31-.29.468-.44 1.81-1.744 3.413-3.75 4.594-5.972.328-.628.497-1.313.731-1.97.169-.468.497-.9.638-1.35.375-1.162.047-2.821.037-4.03-.018-1.378.882-2.335 1.379-3.553.628-1.538.703-3.038.309-4.463"/><path fill="#2F2F2F" d="M107.456 14.025a9.1 9.1 0 0 0-1.237-2.644c-1.509-2.268-3.628-3.984-5.766-5.625-3.112-2.41-7.284-4.425-11.231-4.575-2.016-.075-3.506 1.135-4.837 2.494-.582.6-1.107 1.181-2.016 1.153-.844-.037-1.622-.525-2.456-.656-2.494-.413-4.603 1.256-6.178 2.981-1.707 1.875-3.394 3.89-4.876 5.925-1.059 1.453-2.024 3.019-2.596 4.725-.91 2.7-.582 5.213 1.64 7.069 2.307 1.94 4.34 4.247 6.675 6.15 3.197 2.597 6.853 4.519 10.303 6.731 4.913 3.15 8.897 4.378 13.632.122.178-.16.356-.319.525-.487 1.978-1.904 3.74-4.107 5.034-6.544.366-.685.544-1.435.797-2.157.178-.506.534-.984.703-1.48.413-1.276.047-3.085.038-4.416-.01-1.51.965-2.56 1.5-3.891.703-1.669.778-3.31.346-4.875M91.247 5.85c2.072.422 4.013 1.434 5.784 2.569 1.932 1.237 6.216 4.368 3.375 6.937-1.218 1.106-1.734-.3-2.615-.975a249 249 0 0 0-5.372-4.003c-.863-.628-4.697-2.128-4.425-3.45.234-1.181 1.547-1.425 3.253-1.078m3.122 27.844c-2.494 1.612-4.838.59-7.266-.91-2.315-1.425-4.772-2.625-6.965-4.228-2.653-1.922-5.297-4.134-7.82-6.225-2.633-2.184-.102-6.693 1.623-8.587 1.04-1.144 2.625-2.803 4.012-3.525 2.025-1.05 4.003.272 5.85 1.228 4.52 2.316 8.87 5.034 12.722 8.362 1.313 1.135 3.863 3.197 3.553 5.203-.112.722-.581 1.716-.853 2.382-.947 2.297-2.569 4.697-4.612 6.15a10 10 0 0 0-.244.15"/><path fill="#fff" d="M76.228 13.19s2.203-3.102 4.069-2.193c1.5.722 9.43 5.466 10.921 6.581s.066 1.04-1.612.59-6.966-3.205-8.831-2.83c-1.866.375-6.47 3.215-7.594 3.215-1.116 0 1.819-3.75 3.047-5.362"/></g><defs><clipPath id="a"><path fill="#fff" d="M0 0h120v120H0z"/></clipPath></defs></svg>
